packages/components/src/telekom/icons/device/change-camera/default.svg

<svg width="24" height="24" xmlns="http://www.w3.org/2000/svg"><path d="M13.794 1.141l.106.009C19.05 2.1 23 6.6 23 12c0 3.335-1.495 6.343-3.853 8.392l-.247.208 1.6 2.4h-6.7l2.7-6.1 1.55 2.4c2.1-1.75 3.45-4.35 3.45-7.3 0-4.65-3.4-8.55-7.9-9.4-.42-.047-.71-.485-.583-.91l.033-.09c.09-.315.423-.468.744-.459zM10.2 1L7.55 7.1l-1.6-2.4C3.85 6.45 2.5 9.05 2.5 12c0 4.65 3.4 8.55 7.9 9.35.45.05.75.55.55 1.05-.1.35-.5.5-.85.45C4.95 21.9 1 17.4 1 12a10.94 10.94 0 013.853-8.346L5.1 3.45 3.5 1h6.7zm4.3 8v1.75l1.35-1.25h.65V14h-.65l-1.35-1.25V13c0 .8-.576 1.423-1.352 1.493L13 14.5H9.5a1.47 1.47 0 01-1.493-1.352L8 13V9h6.5z" fill="#000" fill-rule="evenodd"/></svg>

<svg height="24" width="24" xmlns="http://www.w3.org/2000/svg"><path d="m13.794 1.141.106.009c5.15.95 9.1 5.45 9.1 10.85 0 3.45-1.6 6.55-4.1 8.6l1.6 2.4h-6.7l2.7-6.1 1.55 2.4c2.1-1.75 3.45-4.35 3.45-7.3 0-4.65-3.4-8.55-7.9-9.4-.45-.05-.75-.55-.55-1 .1-.35.5-.5.85-.45zm-3.594-.141-2.65 6.1-1.6-2.4c-2.1 1.75-3.45 4.35-3.45 7.3 0 4.65 3.4 8.55 7.9 9.35.45.05.75.55.55 1.05-.1.35-.5.5-.85.45-5.15-.95-9.1-5.45-9.1-10.85 0-3.45 1.6-6.55 4.1-8.55l-1.6-2.45zm4.3 8v1.75l1.35-1.25h.65v4.5h-.65l-1.35-1.25v.25c0 .85-.65 1.5-1.5 1.5h-3.5c-.85 0-1.5-.65-1.5-1.5v-4z" fill="#262626" fill-rule="evenodd"/></svg>
